X: 1
T: Good Hope Caper, The
M: 6/8
L: 1/8
R: jig
K: Bmin
|:FBd cBF|DEF GFE|FBd GBd|Ace gfe|
fBd cBF|DEF GFE|1 GFE FBd|cBA BFE:|2 GFE FBd|edc B3||
|:fBd ~g3|fBd ~g3|fed fed|c=c^c ~f3|
fBd ~g3|fBd ~g3|1 fed cBA|Fdc Bce:|2 fed FBd|cf^a b3||
